X:145
T:The Waltz of the Little Girls
Z:Jack Campin, http://www.campin.me.uk/
F:Jack Campin's Nine-Note Tunebook
% last edit 03-02-2013
Z:Nigel Gatherer?
M:3/4
L:1/8
Q:3/4=45
K:D
dc BA|F2 FE DE|F2 dc BA|   F2    FE DF|G2
GF GA|B2 BA GF|E2 EF GA|[1 B2    BA Bc|BA:|
                        [2 Bd/B/ Ac Ac|d2|:\
DF Ad|c2 cB AF|DF BF AF|   E3     A Ec|d2
DF Ad|c2 cB AF|DF BF AF|   E3     A Ec|d2:|

